X:39
T:Rambling Sailor, The
R:polka
H:See also #36
D:Jackie Daly: Many's a Wild Night
Z:id:hn-polka-39
M:2/4
L:1/8
K:A
A>B ce|ae fa|A>B ce|fc ec|A>B ce|ae fe|fa/f/ ec|1 BA A2:|2 BA AB||
|:c>d cB|c/d/e fe|c>d cB|c/B/A B2|c>d cB|c/d/e fe|fa/f/ ec|1 BA AB:|2 BA A2||
P:Variations
A>B ce|ae fe|A>B ce|c/B/A B2|A>B ce|ae fe|fa/f/ ec|1 BA A2:|2 BA AB||
|:c>c cB|ce fe|c>B ce|c/B/A B2|c>c cB|ce fe|fa/f/ ec|1 BA AB:|2 BA A2||
<end>
<start>
